X: 06088
T: The 6 GRAND JIG
C: Bob McQuillen 2 Oct 81
B: Bob's Note Book 6 #88
%R: jig
Z: 2021 John Chambers <jc:trillian.mit.edu>
M: 6/8
L: 1/8
K: G	% and Em
D \
| GED B,CD | E2G F2A | GBd ege | d2B A2D |\
| GAG FGA  | BGB ABd | g2g edA | BGG G2 :|
|: A \
| Bed Beg | fef d2B | Beg fga | b2g ege |\
| ded Bde | d2B AGA | Bed BAB | GEE E2 :|
%%begintext align
%% This tune is for my  dear friend
%% the Deacon - (Steve Avery) -
%% It's the very least I could do!
%%endtext

%%sep 1 1 500

%%sep 1 1 500

